!!!COM: Bach, Johann Sebastian
!!!OTA: Das wohltemperirte Clavier
!!!OPR: Das wohltemperierte Klavier
!!!OTL: Fuga 1, Vol. 1
!!!XEN: The Well-Tempered Clavier, Volume 1, Fugue 1.
!!!ONB: C major, 4-part
!!!SCT: BWV 846b
!!!YEC: Copyright 1994, David Huron
!!!YEM: Rights to all derivative electronic formats reserved.
**kern	**kern	**kern	**kern
*staff2	*staff2	*staff1	*staff1
*clefF4	*clefF4	*clefG2	*clefG2
*k[]	*k[]	*k[]	*k[]
*M4/4	*M4/4	*M4/4	*M4/4
*C:	*C:	*C:	*C:
*MM62	*MM62	*MM62	*MM62
=1	=1	=1	=1
1r	1r	8r	1r
.	.	8c	.
.	.	8d	.
.	.	8e	.
.	.	8.f	.
.	.	32g	.
.	.	32f	.
.	.	8e	.
.	.	8a	.
=2	=2	=2	=2
1r	1r	8d	2r
.	.	[8g	.
.	.	16g]	.
.	.	16a	.
.	.	16g	.
.	.	16f	.
.	.	16e	8r
.	.	16f	.
.	.	16e	8g
.	.	16d	.
.	.	16c	8a
.	.	16d	.
.	.	16c	8b
.	.	16B	.
=3	=3	=3	=3
1r	1r	8A	8.cc
.	.	8f#	.
.	.	.	32dd
.	.	.	32cc
.	.	[4g	8b
.	.	.	8ee
.	.	8g]	8a
.	.	16f#	[8dd
.	.	16e	.
.	.	8f#	16dd]
.	.	.	16ee
.	.	8d	16dd
.	.	.	16cc
=4	=4	=4	=4
1r	8r	8g	16b
.	.	.	16g
.	8G	8fn	16a
.	.	.	16b
.	8A	8e	16cc
.	.	.	16b
.	8B	8d	16cc
.	.	.	16dd
.	8.c	8c	16ee
.	.	.	16dd
*	*	*strophe	*
*	*	*^	*
*	*	*S/sic	*S/ossia	*
.	.	8r	8axx	16ee
.	32d	.	.	16ff#
.	32c	.	.	.
.	8B	8r	8dxx	8gg
*	*	*S/fin	*S/fin	*
*	*	*v	*v	*
*	*	*S-	*
.	8e	[8g	8b
=5	=5	=5	=5
2r	8A	8g]	8cc
.	[8d	16f	8a
.	.	16e	.
.	16d]	[4f	16dd
.	16e	.	16cc
.	16d	.	16b
.	16c	.	16a
8r	8B	16f]	8.g
.	.	16f	.
8C	[8c	8e	.
.	.	.	16g
8D	8c]	4d	16f
.	.	.	16e
8E	8B-	.	16f
.	.	.	16g
=6	=6	=6	=6
8.F	8A	8c	16a
.	.	.	16g
.	8d	8f	16a
32G	.	.	16b
32F	.	.	.
8E	8G	16r	2cc
.	.	16g	.
8A	8c	16f	.
.	.	16e	.
8D	16r	8f	.
.	16A	.	.
[8G	16B	8d	.
.	16c	.	.
16G]	4d	[4g	4b
16A	.	.	.
16G	.	.	.
16F	.	.	.
=7	=7	=7	=7
16E	4G	4g]	8r
16F	.	.	.
16E	.	.	8cc
16D	.	.	.
16C	8r	4r	8dd
16D	.	.	.
16C	8G	.	8ee
16BB	.	.	.
8AA	8A	2r	8.ff
8D	8B	.	.
.	.	.	32gg
.	.	.	32ff
8A	8.c	.	8ee
8F#	.	.	8aa
.	32d	.	.
.	32c	.	.
=8	=8	=8	=8
16G	8B	1r	8dd
16A	.	.	.
16B-	8e	.	[8gg
16G	.	.	.
8C#	8A	.	16gg]
.	.	.	16aa
8D	[8d	.	16gg
.	.	.	16ff
4A	16d]	.	8ee
.	16e	.	.
.	16d	.	[8aa
.	16cn	.	.
4E	8Bn	.	16aa]
.	.	.	16bb
.	[8e	.	16aa
.	.	.	16gg
=9	=9	=9	=9
16A	4e]	8r	2ff
16B	.	.	.
16c	.	8g	.
16d	.	.	.
16c	4d	8a	.
16B	.	.	.
16A	.	8b	.
16G	.	.	.
*	*	*	*strophe
*	*	*	*^
*	*	*	*S/sic	*S/ossia
8c	16c	8.cc	8xee	8.xee
.	16B	.	.	.
8r	16c	.	8xff#	.
.	16A	32dd	.	16xff#
.	.	32cc	.	.
*	*	*	*S/fin	*S/fin
*	*	*	*v	*v
*	*	*	*S-
4r	16e	8b	[4gg
.	16d	.	.
.	16c	8ee	.
.	16B	.	.
=10	=10	=10	=10
2r	16c	8a	4gg]
.	16A	.	.
.	16B	[8dd	.
.	16c	.	.
.	16d	16dd]	4ff#
.	16c	16ee	.
.	16B	16dd	.
.	16A	16cc	.
8r	4G	8b	16gg
.	.	.	16ffn
8GG	.	8r	16ee
.	.	.	16dd
8AA	4r	8r	16cc
.	.	.	16dd
8BB	.	8d	16cc
.	.	.	16b
=11	=11	=11	=11
8.C	1r	8e	16a
.	.	.	16cc
.	.	8f#	16b
32D	.	.	16a
32C	.	.	.
8BB	.	8.g	8g
8E	.	.	8r
.	.	32a	.
.	.	32g	.
8AA	.	8f#	16r
.	.	.	16cc
[8D	.	8b	16b
.	.	.	16a
16D]	.	8e	8g#
16E	.	.	.
16D	.	[8a	8ee
16C	.	.	.
=12	=12	=12	=12
8BB	8r	16a]	8dd
.	.	16b	.
4E	8E	16a	16cc
.	.	16g#	16b
.	8F#	8f#	16a
.	.	.	16g#
8D	8G#	8fn	16a
.	.	.	16b
8C	8.A	8e	16cc
.	.	.	16f#
*	*	*	*strophe
*	*	*	*^
*	*	*	*S/sic	*S/ossia
4Fn	.	[8d	16g#xx	16axx
.	32B	.	16axx	16g#xx
.	32A	.	.	.
*	*	*	*S/fin	*S/fin
*	*	*	*v	*v
*	*	*	*S-
.	8G#	16d]	8b
.	.	16e	.
[8E	8c	16f#	16a
.	.	16g#	16b
=13	=13	=13	=13
8E]	8F#	16a	8cc
.	.	16g#	.
4D	[8B	16a	8ff
.	.	16b	.
.	16B]	16g#	8ee
.	16c	16f#	.
8E	16B	16g#	[8dd
.	16A	16a	.
8Fn	8G#	8b	8dd]
16E	4A	8r	16cc
16D	.	.	16b
4E	.	4r	8.bWx
.	8G#	.	.
.	.	.	16a
=14	=14	=14	=14
4AA	4A	8r	4a
.	.	8c	.
4r	8r	8d	4r
.	8G	8e	.
2r	8A	8.f	2r
.	8B	.	.
.	.	32g	.
.	.	32f	.
.	8.c	8e	.
.	.	8a	.
.	32d	.	.
.	32c	.	.
=15	=15	=15	=15
8r	8B	8d	2r
8GG	8e	[8g	.
8AA	8A	16g]	.
.	.	16a	.
8BB	[8d	16g	.
.	.	16f	.
8.C	8d]	8e	8r
.	8G	8e	8g
32D	.	.	.
32C	.	.	.
8BB	4d	8f#	8a
8E	.	[8g	8b
=16	=16	=16	=16
8AA	8c	8g]	8.cc
[8D	8A	8f#	.
.	.	.	32dd
.	.	.	32cc
16D]	4e	8g#	8b
16E	.	.	.
16D	.	[8a	8cc
16C	.	.	.
8BB	8d	8a]	8dd
8BB-	8r	8gn	8ee
8AA	4r	8a	8.ffn
8GG	.	8b	.
.	.	.	32gg
.	.	.	32ff
=17	=17	=17	=17
8AA	8r	8.cc	8ee
8F#	8A	.	8aa
.	.	32dd	.
.	.	32cc	.
8G	8B	8b	8dd
8E	8c#	8ee	[8gg
4D	8.d	8a	16gg]
.	.	.	16aa
.	.	[8dd	16gg
.	32e	.	16ff
.	32d	.	.
8E	8cn	16dd]	8ee
.	.	16ee	.
8Fn	8fnx	16dd	8aa
.	.	16cc	.
=18	=18	=18	=18
8.G	8B	8b	8dd
.	[8e	8gg	8bb-
32A	.	.	.
32G	.	.	.
8F	16e]	8cc#	8aa
.	16f	.	.
8B-	16e	8dd	16gg
.	16d	.	16ff
8E	8c#	8ee	16gg
.	.	.	16ff
[8A	8r	8cc#	16gg
.	.	.	16ee
16A]	4r	8dd	16ff
16B-	.	.	16gg
16A	.	8ee	16ggM
16G	.	.	32ff
.	.	.	32gg
=19	=19	=19	=19
16F	8r	8a	16aa
16E	.	.	16cc#
16F	8A	8r	16dd
16D	.	.	16gg
8G	8B	8r	8.ee
8A	8c#	8e	.
.	.	.	16dd
[2D	8.d	8f#	8dd
.	.	8g	8r
.	32e	.	.
.	32d	.	.
.	8cn	8.a	4r
.	8f#	.	.
.	.	32b	.
.	.	32a	.
=20	=20	=20	=20
16D]	8B	8g	2r
16E	.	.	.
16D	[8e	8cc	.
16C	.	.	.
16BB	16e]	8f#	.
16AA	16f#	.	.
16GG	16e	[8b	.
16FF#	16d	.	.
8EE	[2c	16b]	4r
.	.	16cc	.
8E	.	16b	.
.	.	16a	.
8F#	.	16g	8r
.	.	16f#	.
[8G	.	16e	8g
.	.	16d	.
=21	=21	=21	=21
8G]	16c]	4e	8a
.	16d	.	.
16A	16c	.	8b
16G	16B	.	.
8F#	16A	[4d	8.cc
.	16G	.	.
8D	16A	.	.
.	16F#	.	32dd
.	.	.	32cc
[2G	8G	16d]	8b
.	.	16a	.
.	8B	16g	8ee
.	.	16fn	.
.	8c	16e	8a
.	.	16g	.
.	8d	16f	[8dd
.	.	16a	.
=22	=22	=22	=22
2G]	8.e	[4g	16dd]
.	.	.	16ee
.	.	.	16dd
.	32f	.	16cc
.	32e	.	.
.	8d	16g]	16b
.	.	16a	16cc
.	8g	8b-	16dd
.	.	.	16ee
4A	8c	4cc	16ff
.	.	.	16gg
.	[8f	.	16aa
.	.	.	16gg
8B	16f]	8dd	16ff
.	16g	.	16ee
8c	16f	8g	16dd
.	16e	.	16cc
=23	=23	=23	=23
16F	4d	4.g	4btx
16A	.	.	.
16G	.	.	.
16F	.	.	.
16E	8e	.	8cc
16D	.	.	.
16C	[8d	[8f	8dd
16BB	.	.	.
16C	8d]	8f]	8g
16D	.	.	.
16E	8G	8e	4cc
16F	.	.	.
8G	[4G	4d	.
8GG	.	.	8b
=24	=24	=24	=24
[1C	8G]	8e	4cc
.	8C	4a	.
.	8D	.	8b
.	8E	[8g	8b-
.	8.F	8g]	8a
.	.	8f	4dd
.	32G	.	.
.	32F	.	.
.	8E	8g	.
.	8A	8a	8cc
=25	=25	=25	=25
1C_	8D	8.b-	8dd
.	[8G	.	8ee
.	.	32cc	.
.	.	32b-	.
.	16G]	8a	[4ff
.	16A	.	.
.	16G	8dd	.
.	16F	.	.
.	16E	8g	16ff]
.	16D	.	16aa
.	16E	[8cc	16gg
.	16F	.	16ff
.	16G	16cc]	16ee
.	16A	16dd	16ff
.	16B-	16cc	16ee
.	16G	16b-	16dd
=26	=26	=26	=26
1C_	16A	16a	2cc
.	16E	16b-	.
.	16F	16a	.
.	16G	16g	.
.	16A	16f	.
.	16Bn	16g	.
.	16c	16f	.
.	16A	16e	.
.	2B	[4d	16r
.	.	.	32g
.	.	.	32a
.	.	.	16bn
.	.	.	16cc
.	.	8.d]	16dd
.	.	.	16ee
.	.	.	[8ff
.	.	16g	.
=27	=27	=27	=27
1C;]	1c;	4a	32ff]
.	.	.	32cc
.	.	.	32dd
.	.	.	32ee
.	.	.	16ff
.	.	.	16gg
.	.	16r	8.aa
.	.	16ff	.
.	.	8dd	.
.	.	.	16bb
.	.	2ee; 2gg;	2ccc;
==	==	==	==
*-	*-	*-	*-
!!!CDT: 1685/3/-1750/7/28
!!!OCY: Deutschland
!!!PPP: Coethen; Cothen; Co2then
!!!ODT: <1722//
!!!PDT: 1722
!!!AFR: fuga; fugue
!!!AST: polyphony
!!!AMT: simple quadruple
!!!SCA: Bach-Werke-Verzeichnis
!!!YOR: Bach Gesellschaft
!!!SMS: British Library, various
!!!AIN: cemba; clavi
!!!EEV: 1.0
!!!RDT: 1986 November 14
!!!YER: 1994 August 10
!!!EFL: 1/48
!!!VTS: 652652838
